X: 1909
T: Uşşak Sazsemâîsi
C: Corci (Kemani)
O: Turkey
F: http://compmusic.upf.edu/node/140
N: ussak--sazsemaisi--aksaksemai----corci
N: makam= ussak
N: form= sazsemaisi
N: usul= aksaksemai = 10/8
M: 10/8
L: 1/16
K: C _2/4B   
Q: 1/4=156
%%MIDI tuningsystem comma53
A4 AAA2 G2_1/4B2 c2d4e2  | f4 e2d2 c2d2 e2d4c_1/4B  | \
w:   |   | 
A4 AAA2 G2_1/4B2 c2d4e2  | 
w:   | 
c4 d2_1/4B4BA G2A4z2  | A4 AAA2 G2_1/4B2 c2d4e2  | \
w:   |   | 
f4 e2d2 c2d2 e2d4c_1/4B  | 
w:   | 
A4 AAA2 G2_1/4B2 c2d4e2  | c4 d2_1/4B4BA G2A4z2  | \
w:   |   | 
A4 f2e4f2 g2e6  | 
w:   | 
d4 c2_1/4B4c2 d2e6  | A4 f2e4f2 g2e4d2  | \
w:   |   | 
_1/4B2c2 d2e2 d2c2 B2A4z2  | 
w:   | 
A4 f2e4f2 g2e6  | d4 c2_1/4B4c2 d2e6  | \
w:   |   | 
A4 f2e4f2 g2e4d2  | _1/4B2c2 d2e2 d2c2 B2A4z2  | 
w:   |   | 
A4 AAA2 G2_1/4B2 c2d4e2  | f4 e2d2 c2d2 e2d4c/_1/4B/A4A/A/ A2G2 B2c2 d4 e2c4d2 B4 BAG2 A4 z2A4AA A2G2 B2c2 d4 e2f4e2 d2c2 d2e2 d4 c/B/A4A/A/A2 G2B2 c2d4e2 c4  | 
w:   |   | 
d2_1/4B4BA G2A4z2 A4  | aaa4g4a6 d4  | \
w:   |   | 
e2^f4g4a4z2 g4  | g/g/g3 _ba2g2f4e2d4d2e2d2e2c2d4z2A4a  | 
w:   |   | 
aa4g4a6d4e2^f4g4a4z2g4g/g/  | g3_b a2g2 f4 e2d4d2  | 
w:   |   | 
e2d2 e2c2 d4 z2A4f2  | e4 f2g2 e6d4c2  | \
w:   |   | 
_1/4B4 c2d2 e6A4f2  | e4 f2g2 e4 d2_1/4B2 c2d2  | 
w:   |   | 
e2d2 c2_1/4B2 A4 z2A4f2  | e4 f2g2 e6d4c2  | \
w:   |   | 
_1/4B4 c2d2 e6A4f2  | e4 f2g2 e4 d2_1/4B2 c2d2  | 
w:   |   | 
e2d2 c2_1/4B2 A4 z2A4AA  | A2G2 _1/4B2c2 d4 e2f4e2  | \
w:   |   | 
d2c2 d2e2 d4 c/_1/4B/A4A/A/A2  | 
w:   | 
G2_1/4B2 c2d4e2 c4 d2B4BA G2A4z2 A4 AAA2  | \
w:   | 
G2_1/4B2 c2d4e2 f4 e2d2  | 
w:   | 
c2d2 e2d4c/_1/4B/A4A/A/ A2G2  | _1/4B2c2 d4 e2c4d2 B4  | \
w:   |   | 
_1/4BAG2 A4 z2A4aa a4  | 
w:   | 
g4 a6d4e2 ^f4  | g4 a4 z2g4g/g/g3_ba2g2f4e2d4d2e2d2e2c2d4z2A4aaa4g4a6d4e2^f4g4a4z2g4g/g/g3ba2  | 
w:   |   | 
g2f4e2 d4 d2e2 d2e2  | c2d4z2 G2A4AA A4  | \
w:   |   | 
G4 A6D4E2 ^F4  | 
w:   | 
G4 A6G4GG G4  | G4 c6c4_1/4B2 d2cB  | \
w:   |   | 
_1/4BAG2 A6z2 G2A4AA  | 
w:   | 
A4 G4 A6D4E2  | ^F4 G4 A6G4GG  | G4 G4 c6c4_1/4B2  | \
w:   |   |   | 
d2c_1/4B BAG2 A6z2 A4  | 
w:   | 
f4 e4 f2g2 e4 d4  | e4 d4 c2d2 e6z2  | \
w:   |   | 
A4 f4 e4 f2g2 e6d2 _1/4B2c2 d2e2 e2d2 c2B2  | 
w:   | 
A8 A4 f4 e4  | f2g2 e4 d4 e4 d4  | c2d2 e6z2 A4 f4  | \
w:   |   |   | 
e4 f2g2 e6d2 _1/4B2c2  | 
w:   | 
d2e2 e2d2 c2_1/4B2 A8  | A4 A2A2 A4 _1/4B2c2 d4  | \
w:   |   | 
e4 f4 e4 d4 e4  | d4 A4 A/A/A4_1/4B2c2d4e4c4d4B2A2G4A4A4A2A2A4B2c2d4e4f4e4d4e4d4A4A/A/A4B2  | 
w:   |   | 
c2d4e4c4d4_1/4B2  | A2G4A4G2 A4 AAA4G4A6 D4 E2^F4G4A6 G4 GGG4G4c6 c4 _1/4B2d2  | 
w:   |   | 
c_1/4BBA G2A6 z2G2 A4  | AAA4G4A6 D4  | \
w:   |   | 
E2^F4G4A6 G4  | GGG4G4c6 c4  | 
w:   |   | 
_1/4B2d2 cBBA G2A6 z2A4f4e4f2 g2e4d4e4d4c2 d2e6  | 
w:   | 
z2A4f4e4f2 g2e6 d2_1/4B2 c2d2 e2e2 d2c2  | \
w:   | 
_1/4B2A8A4f4e4f2 g2e4d4e4d4c2 d2e6 z2A4f4e4f2 g2e6 d2B2  | 
w:   | 
c2d2 e2e2 d2c2 _1/4B2A8A4A2 A2A4B2 c2d4e4f4e4d4e4d4A4A/A/A4B2c2d4e4c4d4B2A2G4A4A4A2A2A4B2c2d4e4f4e4d4e4d4A4A/A/ A4  | 
w:   | 
_1/4B2c2 d4 e4 c4 d4  | _1/4B2A2 G4 A4 |
w:   |   | 


